X: 35712
T: Saint Lawrence
R: jig
M: 6/8
K: Dmajor
B|ABA FAd|f2 d A2 d|c2 B G2 B|B2 A F2 G|
ABA F>Ad|f2 d A2 d|cde ABc|d3 d2 B|
ABA FAd|f2 d A2 d|c2 B G2 B|BcB F2 G|
A>BA FAd|f2 d A2 d|c2 e B2 c|d3 d2||
|:f|a2 g B3|g2 f A3|d2 c cBc|edB A2 f|
a2 g B^AB|g2 f A3|d2 c cBc|edd d2:|

